X:1
T: Sweet Biddy Daly
C:
R:Jig
Q:180
K:A
M:6/8
L:1/16
a2|:e2c2A2 B2A2F2|A2F2E2 E2F2A2|B2d2c2 B2A2B2|c2B2B2 B4a2|
e2c2A2 B2A2F2|A2F2E2 E2F2A2|B2d2c2 B2A2B2|c2A2A2 A4a2:|
|:c2e2e2 d2f2f2|c2e2e2 e2c2A2|c2d2e2 e2a2f2|e2c2A2 B4A2|
c2e2e2 d2f2f2|c2e2e2 e2c2A2|B2d2c2 B2A2B2|1c2A2A2 A4A2:|2c2A2A2 A4||
